!!!!SEGMENT: pl-cz--iii-370--001-003_krogulski-jozef-wladyslaw--msza-c-andante-przed-ewangelia.krn
!!!cenid: 18xx:940
!!!COM: Krogulski, Józef Władysław
!!!COM-rismid: pe30001797
!!!CDT: 1815/10/04-1842/01/09
!!!CNT: Polish
!!!OPR: Msza C
!!!OTL: Andante przed Ewangelią
!!!OMV: 003
!!!PDT:
!!!AGN: Sacred; Mass
!!!SMS-siglum: PL-CZ
!!!SMS-shelfmark: III-370
!!!SMS-shelfwork: 001-003 M
!!!SMS-variant:
!!!SMS-altvar:
!!!NIFC-rismid: 300000646
!!!URL-scan: http://repozytorium.nifc.pl/skany/pl-cz-nut--iii-370
!!!ONB-nifc: UWAGA: części Mszy: Kyrie, Gloria, Andante przed Ewangelią, Credo, Offertorium, Sanctus, Benedictus, Agnus, Na Benedykcyią
!!!key:
**kern	**kern	**dynam	**kern	**text	**dynam	**kern	**text	**dynam	**kern	**text	**dynam
*part4	*part4	*part4	*part3	*part3	*part3	*part2	*part2	*part2	*part1	*part1	*part1
*staff5	*staff4	*	*staff3	*staff3	*	*staff2	*staff2	*	*staff1	*staff1	*
*I"Organ	*I"Organ	*	*I"Bas	*	*	*I"Spiew Drugi	*	*	*I"Spiew Pierwszy	*	*
*I'org	*I'org	*	*I'B	*	*	*I'S 2	*	*	*I'S 1	*	*
*Iorgan	*Iorgan	*	*Ibass	*	*	*Isoprn	*	*	*Isoprn	*	*
*ICklav	*ICklav	*	*ICvox	*	*	*ICvox	*	*	*ICvox	*	*
*IGacmp	*IGacmp	*	*	*	*	*	*	*	*	*	*
*>[A,A,B]	*>[A,A,B]	*>[A,A,B]	*>[A,A,B]	*>[A,A,B]	*>[A,A,B]	*>[A,A,B]	*>[A,A,B]	*>[A,A,B]	*>[A,A,B]	*>[A,A,B]	*>[A,A,B]
*>A	*>A	*>A	*>A	*>A	*>A	*>A	*>A	*>A	*>A	*>A	*>A
*clefF4	*clefG2	*	*clefF4	*	*	*clefG2	*	*	*clefG2	*	*
*k[]	*k[]	*	*k[]	*	*	*k[]	*	*	*k[]	*	*
*C:	*C:	*	*C:	*	*	*C:	*	*	*C:	*	*
*M3/4	*M3/4	*	*M3/4	*	*	*M3/4	*	*	*M3/4	*	*
*all\right	*all\right	*	*all\right	*	*	*all\right	*	*	*all\right	*	*
!	!LO:TX:a:B:t=Andante PoleKiyi	!LO:DY:b:rj	!	!	!LO:DY:a:rj	!LO:TX:a:t=andaten	!	!LO:DY:a:rj	!LO:TX:a:t=andan	!	!
4C 4CC/	4ee 4g\	p	4C/	Po-	f	4g/	Po-	f	4ee\	po-	.
=1	=1	=1	=1	=1	=1	=1	=1	=1	=1	=1	=1
*^	*	*	*	*	*	*	*	*	*	*	*
*	*2\right	*	*	*	*	*	*	*	*	*	*	*
[2.C/	[2.CC\	4ee 4g\	.	2C/	-wstan-	.	(4g/	-wstan-	.	(4ee\	-wstan-	.
.	.	4cc 4e\	.	.	.	.	4e/)	.	.	4cc\)	.	.
.	.	4ff 4a\	.	4C/	-cie	.	4a/	-cie	.	4ff\	-cie	.
*v	*v	*	*	*	*	*	*	*	*	*	*	*
=2	=2	=2	=2	=2	=2	=2	=2	=2	=2	=2	=2
4C/] 4CC/]	4ee 4g\	.	4C/	lu-	.	4g/	lu-	.	4ee\	lu-	.
4E\	4ee 4cc 4g\	.	4E/	-dy	.	4cc\	-dy	.	4ee\	-dy	.
8G\L	4dd 4b 4g\	.	8G/	na	.	8b\	na	.	8dd\	na	.
8F\J	.	.	8F/	glos	.	8b\	glos	.	8dd\	glos	.
=3	=3	=3	=3	=3	=3	=3	=3	=3	=3	=3	=3
*	*^	*	*	*	*	*	*	*	*	*	*
*	*	*2\right	*	*	*	*	*	*	*	*	*	*
4E\	4cc/	2.g\	.	(4E/	nie-	.	4cc\	nie-	.	(4cc\	nie-	.
4D\	4ff 4b/	.	.	4D/)	.	.	4b\	.	.	4ff\)	.	.
4C\	4ee 4cc/	.	.	4C/	-bios	.	4cc\	-bios	.	4ee\	-bios	.
*	*v	*v	*	*	*	*	*	*	*	*	*	*
=4	=4	=4	=4	=4	=4	=4	=4	=4	=4	=4	=4
2G 2GG\	4ee 4cc 4g\	.	4G\	Pa-	.	4cc\	Pa-	.	4ee\	pa-	.
.	4dd 4b 4g\	.	8G\	-na	.	8b\	-na	.	8dd\	-na	.
.	.	.	8r	.	.	8r	.	.	8r	.	.
4G\	4dd 4b\	.	4G\	Niech	.	4b\	niech	.	4dd\	Niech	.
=5	=5	=5	=5	=5	=5	=5	=5	=5	=5	=5	=5
*	*^	*	*	*	*	*	*	*	*	*	*
*	*	*	*	*	*	*	*	*	*	*2\right	*	*
4F#X\	2dd/	4a\	.	(4F#X\	zie-	.	(4a\	zie-	.	2dd\	zie-	.
4E\	.	4g\	.	4E\)	.	.	4g/	.	.	.	.	.
4D\	4dd\	4f#X\	.	4D\	-mia	.	4f#X)/	-mia	.	4dd\	-mia	.
*	*v	*v	*	*	*	*	*	*	*	*	*	*
!	!	!	!LO:LB:g=original	!	!	!	!	!	!	!	!
=6	=6	=6	=6	=6	=6	=6	=6	=6	=6	=6	=6
4G\	2b 2g\	.	4G\	ca-	.	4g/	ca-	.	4b\	ca-	.
!	!	!	!	!	!	!LO:LB:g=original	!	!	!	!	!
4E\	.	.	4E\	-ła	.	4g/	-la	.	4b\	-la	.
4C\	8eeL 8cc\	.	4C\	mil-	.	8cc/L	mil-	.	8ee\L	mil-	.
.	8ccJ 8a\	.	.	.	.	8a/J	.	.	8cc\J	.	.
=7	=7	=7	=7	=7	=7	=7	=7	=7	=7	=7	=7
[2.D\	2b 2g\	.	4D\	-cze-	.	4g/	-cze-	.	4b\	-cze-	.
.	.	.	4D\	-nie	.	4g/	-nie	.	4b\	-nie	.
.	8ddL 8f#X\	.	4D\	za-	.	8f#X/L	za-	.	8dd\L	za-	.
.	8ccJ 8a\	.	.	.	.	8a/J	.	.	8cc\J	.	.
!	!	!	!	!	!	!	!	!	!LO:LB:g=original	!	!
=8	=8	=8	=8	=8	=8	=8	=8	=8	=8	=8	=8
!	!LO:SIC:v:n=3:s=4f#\	!	!	!	!	!	!	!	!	!	!
4D\]	4cc 4a 4f\	.	4D\	-cho-	.	4a/	-cho-	.	4cc\	-cho-	.
4E\	4b 4g\	.	8E\	-wa	.	8g/	-wa	.	8b\	-wa	.
.	.	.	8r	.	.	8r	.	.	8r	.	.
4E\	4b 4g\	.	4E\	Niech	.	4g/	niech	.	4b\	niech	.
!LO:LB:g=original	!LO:LB:g=original	!	!	!	!	!	!	!	!	!	!
=9	=9	=9	=9	=9	=9	=9	=9	=9	=9	=9	=9
*	*^	*	*	*	*	*	*	*	*	*	*
4F#X\	2dd/	4a\	.	(4F#X\	zie-	.	(4a/	zie-	.	2dd\	zie-	.
4E\	.	4g\	.	4E\)	.	.	4g/)	.	.	.	.	.
4D\	4dd/	4f#X\	.	4D\	-mia	.	4f#X/	-mia	.	4dd\	-mia	.
=10	=10	=10	=10	=10	=10	=10	=10	=10	=10	=10	=10	=10
4G\	4b/	2g\	.	4G\	ca-	.	4g/	(ca-	.	4b\	ca-	.
4E\	4ee/	.	.	4E\	-ła	.	4g/	-ła)	.	4ee\	-ła	.
4C\	4ryy	8dd\L 8b\L	.	4C\	mil-	.	8b/L	mil-	.	8dd\L	mil-	.
.	.	8cc\J 8a\J	.	.	.	.	8a/J	.	.	8cc\J	.	.
*	*v	*v	*	*	*	*	*	*	*	*	*	*
=11	=11	=11	=11	=11	=11	=11	=11	=11	=11	=11	=11
*	*	*	*2\right	*	*	*	*	*	*	*	*
[2.D\	4b 4g/	.	2D\	-cze-	.	4g/	-cze-	.	(4a/	-cze-	.
.	8ddL 8b/	.	.	.	.	8b/L	-nie	.	8dd\L	.	.
.	8cc 8a/	.	.	.	.	8a/J	.	.	8cc\J)	.	.
.	8b 8g/	.	8D\	-nie	.	8g'/	-nie	.	8b\	-nie	.
!	!LO:TX:b:t=P:problem=# below	!	!	!	!	!	!	!	!	!	!
.	8aJ 8f#X/	.	8D\	za	.	8f#X/	za-	.	8a\	za-	.
!	!	!	!LO:LB:g=original	!	!	!LO:LB:g=original	!	!	!	!	!
=12	=12	=12	=12	=12	=12	=12	=12	=12	=12	=12	=12
!	!LO:SIC:v:n=2:s=4f#/	!	!	!	!	!	!	!	!	!	!
4D\]	4a 4f/	.	4C/	-cho-	.	4f#X/	-cho-	.	4a\	-cho-	.
4G\	8g/L	.	8G\	-wa	.	8g/	-wa	.	8g\	-wa	.
!	!LO:SIC:v:s=4f#/	!	!	!	!	!	!	!	!	!	!
.	8f/	.	8r	.	.	8r	.	.	8r	.	.
4r	8g/	.	4r	.	.	4r	.	.	4r	.	.
.	8a/J	.	.	.	.	.	.	.	.	.	.
!LO:PB:g=original	!LO:PB:g=original	!	!	!	!	!	!	!	!	!	!
=13	=13	=13	=13	=13	=13	=13	=13	=13	=13	=13	=13
!	!	!LO:DY:rj	!	!	!LO:DY:a:rj	!	!	!LO:DY:a:rj	!	!	!
2.E\	2.b 2.g/	p	4E\	o	p	4g/	o	p	4b\	O	.
.	.	.	4E\	to	.	4g/	to	.	4b\	to	.
.	.	.	4E\	Bog	.	4g/	Bog	.	4b\	Bog	.
=14	=14	=14	=14	=14	=14	=14	=14	=14	=14	=14	=14
4E 4EE/	4ee 4g\	.	4E\	zy-	.	4g/	zy-	.	4ee\	zy-	.
4F 4FF/	4ee 4b\	.	4G\	-wy	.	4b/	-wy	.	4ee\	-wy	.
4G 4GG/	4ee 4cc 4a\	.	4A\	przez	.	4cc\	przez	.	4ee\	przez	.
!	!	!	!	!	!	!	!	!	!LO:LB:g=original	!	!
=15	=15	=15	=15	=15	=15	=15	=15	=15	=15	=15	=15
2B 2BB\	2dd#X 2b#X 2f#X/	.	4B\	us-	.	4b\	us-	.	4dd#X\	us-	.
.	.	.	4B\	-ta	.	4b\	-ta	.	4dd#\	-ta	.
4B 4BB\	4dd# 4a 4f#/	.	4B\	Kap-	.	4a\	Kap-	.	4dd#\	Kap-	.
=16	=16	=16	=16	=16	=16	=16	=16	=16	=16	=16	=16
!	!	!	!	!	!	!	!	!	!LO:SIC:v:s=4dd#X\	!	!
4B 4BB\	4dd#X 4a 4f#X/	.	4B\	-ła-	.	4a/	-ła-	.	4dd\	-ła-	.
4E\	8eeL 8g\	.	8E\	-na	.	8g/	-na	.	8ee\	-na	.
.	8d#X\	.	8r	.	.	8r	.	.	8r	.	.
4r	8e\	.	4r	.	.	4r	.	.	4r	.	.
.	8f#\J	.	.	.	.	.	.	.	.	.	.
=17	=17	=17	=17	=17	=17	=17	=17	=17	=17	=17	=17
*	*	*	*	*	*	*	*	*	*	*ij	*
2.E\	2.g 2.e/	.	4E\	o-	.	4e/	O-	.	4g/	O-	.
.	.	.	4E\	-to	.	4e/	-to	.	4g/	-to	.
.	.	.	4E\	Bog	.	4e/	Bog	.	4g/	Bog	.
!	!	!	!LO:LB:g=original	!	!	!	!	!	!	!	!
=18	=18	=18	=18	=18	=18	=18	=18	=18	=18	=18	=18
4C 4CC/	4cc 4e/	.	4C/	zy-	.	4e/	zy-	.	4cc\	zy-	.
!	!	!	!	!	!	!LO:LB:g=original	!	!	!	!	!
4D 4DD/	4cc 4f/	.	4D/	-wy	.	4f/	-wy	.	4cc\	-wy	.
4E 4EE/	4b-X 4g 4c/	.	4E/	przez	.	4g/	przez	.	4b-X\	przez	.
=19	=19	=19	=19	=19	=19	=19	=19	=19	=19	=19	=19
2F 2FF/	2a 2f/	.	4F\	us-	.	4f/	us-	.	4a/	u-	.
.	.	.	4F\	-ta	.	4g/	-ta	.	4a/	-sta	.
4D 4DD/	8eeL 8g\	.	4D\	Kap-	.	8g/L	Ka-	.	8ee\L	Ka-	.
.	8ddJ 8f\	.	.	.	.	8f/J	.	.	8dd\J	.	.
=20	=20	=20	=20	=20	=20	=20	=20	=20	=20	=20	=20
2G 2GG\	4cc 4e/	.	4G\	-ła-	.	4e/	-pla-	.	4cc\	-pła-	.
.	8bn 8d/	.	8GG/	-na	.	8d/	-na	.	8bn\	-na	.
*	*	*	*	*	*	*	*	*	*	*Xij	*
!	!	!	!	!	!	!	!	!LO:DY:rj	!	!	!
.	8r	.	8r	.	.	8r	.	f	8r	.	.
!	!	!LO:DY:t=for	!	!	!LO:DY:a:rj	!	!	!	!	!	!
4C 4CC/	4ee 4g\	f	4C/	Od-	f	4g/	od-	.	4ee\	od-	.
=21	=21	=21	=21	=21	=21	=21	=21	=21	=21	=21	=21
[2.C 2.CC/	4ee 4g\	.	2C/	-wie-	.	(>4g/	-wie-	.	(4ee\	-wie-	.
.	4cc 4e\	.	.	.	.	4e/)	.	.	4cc\)	.	.
.	4ff 4a\	.	4C/	-cznej	.	4a/	-cznej	.	4ff\	-cznej	.
!LO:LB:g=original	!LO:LB:g=original	!	!	!	!	!	!	!	!LO:LB:g=original	!	!
=22	=22	=22	=22	=22	=22	=22	=22	=22	=22	=22	=22
!LO:TX:t=P:problem=brak zakończenia ligatury	!	!	!	!	!	!	!	!	!	!	!
4C] 4CC/	2ee 2cc 2g\	.	(4C/	pra-	.	2g/	praw-	.	2ee\	praw-	.
4E 4EE/	.	.	4E/)	.	.	.	.	.	.	.	.
4F 4FF/	4dd 4a 4f\	.	4F/	-wdy	.	4f/	-dy	.	4dd\	-dy	.
=23	=23	=23	=23	=23	=23	=23	=23	=23	=23	=23	=23
[2.G [2.GG/	4.cc 4.g 4.e\	.	4.G\	gło-	.	4.e/	glo-	.	4.cc\	glo-	.
.	8bL 8g\	.	8G\	-sić	.	8g/	-sic	.	8b\	-sic	.
.	8cc 8a\	.	8G\	bę-	.	8a/	bę-	.	8cc\	bę-	.
.	8ddJ 8b\	.	8G\	-dzie	.	8b/	-dzie	.	8dd\	-dzie	.
!	!	!	!LO:LB:g=original	!	!	!LO:LB:g=original	!	!	!	!	!
=24	=24	=24	=24	=24	=24	=24	=24	=24	=24	=24	=24
4G] 4GG\]	4dd#X 4b\	.	4G\	sło-	.	8b\	sło-	.	4dd#X\	sło-	.
.	.	.	.	.	.	8cc\	-wa	.	.	.	.
4C/	4ee 4cc\	.	8C/	-wa	.	4r	.	.	8ee\	-wa	.
.	.	.	8r	.	.	.	.	.	8r	.	.
4C/	4ee 4cc\	.	4C/	Od-	.	4cc\	od-	.	4ee\	o-	.
=25	=25	=25	=25	=25	=25	=25	=25	=25	=25	=25	=25
2C/	4ee 4cc\	.	2C/	-wie-	.	(4cc\	-wie-	.	4ee\	-dwie-	.
.	4gg 4ee\	.	.	.	.	4ee\)	.	.	4gg\	.	.
4F\	4ff 4dd\	.	4F\	-cznej	.	4dd\	-cznej	.	4ff\	-cznej	.
=26	=26	=26	=26	=26	=26	=26	=26	=26	=26	=26	=26
*	*	*	*	*	*	*2\right	*	*	*	*	*
[2.G\	[2.ee [2.cc\	.	2G\	praw-	.	2cc\	praw-	.	2ee\	praw-	.
.	.	.	4G\	-dy	.	4cc\	-dy	.	4ee\	-dy	.
=27	=27	=27	=27	=27	=27	=27	=27	=27	=27	=27	=27
2.G\_	4.ee] 4.cc\]	.	4.G\	gło-	.	4.cc\	gło-	.	4.ee\	gło-	.
.	8ee 8cc\	.	8G\	-sić	.	8cc\	-sic	.	8ee\	-sic	.
.	8ffL 8dd\	.	8G\	bę-	.	8dd\	bę-	.	8ff\	bę-	.
.	8ddJ 8b\	.	8G\	-dzie	.	8b\	-dzie	.	8dd\	-dzie	.
=28	=28	=28	=28	=28	=28	=28	=28	=28	=28	=28	=28
4G\]	4dd 4b 4f\	.	4G\	sło-	.	4b\	slo-	.	4dd\	slo-	.
4C/	4cc 4e\	.	4C/	-wa	.	4cc\	-wa	.	4cc\	-wa	.
=:|!	=:|!	=:|!	=:|!	=:|!	=:|!	=:|!	=:|!	=:|!	=:|!	=:|!	=:|!
4r	4r	.	4r	.	.	4r	.	.	4r	.	.
=29	=29	=29	=29	=29	=29	=29	=29	=29	=29	=29	=29
2.G 2.GG/	2.dd 2.b 2.f/	.	2.G\	A-	.	2.b\	A-	.	2.dd\	a-	.
=30	=30	=30	=30	=30	=30	=30	=30	=30	=30	=30	=30
4C 4CC/	4cc 4e/	.	4C/	-men	.	4cc\	-m(en)	.	4cc\	-(men)	.
4r	4r	.	4r	.	.	4r	.	.	2ryy	.	.
4r	4r	.	4r	.	.	4r	.	.	.	.	.
!LO:LB:g=original	!LO:LB:g=original	!	!	!	!	!LO:LB:g=original	!	!	!	!	!
=31	=31	=31	=31	=31	=31	=31	=31	=31	=31	=31	=31
2.G 2.GG/	2.b 2.a 2.g 2.d/	.	2.G\	A-	.	2.d/	A-	.	2.b\	a-	.
=32	=32	=32	=32	=32	=32	=32	=32	=32	=32	=32	=32
4C 4CC/	4cc 4g 4e/	.	4C/	-(men)	.	4e/	-men	.	4cc\	-(men)	.
4r	4r	.	4r	.	.	4r	.	.	2ryy	.	.
4r	4r	.	4r	.	.	4r	.	.	.	.	.
==	==	==	==	==	==	==	==	==	==	==	==
*-	*-	*-	*-	*-	*-	*-	*-	*-	*-	*-	*-
!!!system-decoration: [(s1,s2,s3)]{(s4,s5)}
!!!RDF**kern: > = above
!!!AIN: 1 bass 1 organ 2 soprn
!!!ENC: Tomasz Grochalski
!!!END: 2020-08-30
!!!ENC: Marta Lawrence
!!!END: 2021-11-08
